!!!!SEGMENT: pl-kk--kk-i-380--002_anonim--deus-tuorum-militum.krn
!!!cenid: 16xx:732
!!!COM: Anonim
!!!COM-rismID:
!!!CDT:
!!!CNT:
!!!OTL: Deus tuorum militum
!!!PDT:
!!!AGN: Sacred
!!!SMS-siglum: PL-Kk
!!!SMS-shelfmark: Kk.I.380
!!!SMS-shelfwork: 002 W
!!!SMS-variant: Canto 1mo. PL-Kk KK.I.380:0002 Tenore I. PL-Kk KK.I.380:0016 [Basso I] PL-Kk KK.I.380:0018
!!!SMS-altvar: Canto. I. PL-Kk KK.I.380:0004 Tenore 1mo. PL-Kk KK.I.380:0014 Baſso. I. PL-Kk KK.I.380:0020
!!!NIFC-rismSourceID: 1001135348
!!!NIFC-islandoraID: pl-kk:6139
!!!URL-pdf-islandora: https://repozytorium.nifc.pl/islandora/object/pl-kk%3A6139/datastream/PDF/view
!!!URL-scan: https://polish.musicsources.pl/pl/lokalizacje/galeria/rekopisy/5993 @EN{Scan on Polish Music Herritage in Open Access Website} @PL{Skany w portalu Dziedzictwo Muzyki Polskiej w otwartym dostępie}
!!!ONB-nifc: UWAGA: utwory w zbiorze: 1. Gaude Mater Polonia, 2. Deus tuorum militum
!!!AIN: 1 alto 1 bass 1 empty 2 tenor 2 vox
!!!key:
**kern	**text	**text	**text	**text	**text	**text	**kern	**text	**text	**text	**text	**text	**text	**kern	**text	**text	**text	**text	**text	**kern	**text	**text	**text	**text	**text	**kern	**text	**text	**text	**text	**text	**kern	**text	**text	**text	**text	**text	**kern	**text	**text	**text	**text	**text
*part7	*part7	*part7	*part7	*part7	*part7	*part7	*part6	*part6	*part6	*part6	*part6	*part6	*part6	*part5	*part5	*part5	*part5	*part5	*part5	*part4	*part4	*part4	*part4	*part4	*part4	*part3	*part3	*part3	*part3	*part3	*part3	*part2	*part2	*part2	*part2	*part2	*part2	*part1	*part1	*part1	*part1	*part1	*part1
*staff7	*staff7	*staff7	*staff7	*staff7	*staff7	*staff7	*staff6	*staff6	*staff6	*staff6	*staff6	*staff6	*staff6	*staff5	*staff5	*staff5	*staff5	*staff5	*staff5	*staff4	*staff4	*staff4	*staff4	*staff4	*staff4	*staff3	*staff3	*staff3	*staff3	*staff3	*staff3	*staff2	*staff2	*staff2	*staff2	*staff2	*staff2	*staff1	*staff1	*staff1	*staff1	*staff1	*staff1
*Iempty	*	*	*	*	*	*	*Ibass	*	*	*	*	*	*	*Itenor	*	*	*	*	*	*Itenor	*	*	*	*	*	*Ialto	*	*	*	*	*	*Ivox	*	*	*	*	*	*Ivox	*	*	*	*	*
*I"Baſso II.	*	*	*	*	*	*	*I"[Basso I]	*	*	*	*	*	*	*I"Tenore II.	*	*	*	*	*	*I"Tenore I.	*	*	*	*	*	*I"Alto II.	*	*	*	*	*	*I"Canto II.	*	*	*	*	*	*I"Canto 1mo.	*	*	*	*	*
*I'B 2	*	*	*	*	*	*	*I'B 1	*	*	*	*	*	*	*I'T 2	*	*	*	*	*	*I'T 1	*	*	*	*	*	*I'A 2	*	*	*	*	*	*I'S 2	*	*	*	*	*	*I'S 1	*	*	*	*	*
*clefF4	*	*	*	*	*	*	*clefF4	*	*	*	*	*	*	*clefC4	*	*	*	*	*	*clefC4	*	*	*	*	*	*clefC3	*	*	*	*	*	*clefC1	*	*	*	*	*	*clefC1	*	*	*	*	*
*k[]	*	*	*	*	*	*	*k[]	*	*	*	*	*	*	*k[]	*	*	*	*	*	*k[]	*	*	*	*	*	*k[]	*	*	*	*	*	*k[]	*	*	*	*	*	*k[]	*	*	*	*	*
*F:	*	*	*	*	*	*	*F:	*	*	*	*	*	*	*F:	*	*	*	*	*	*F:	*	*	*	*	*	*F:	*	*	*	*	*	*F:	*	*	*	*	*	*F:	*	*	*	*	*
*M3/1	*	*	*	*	*	*	*M3/1	*	*	*	*	*	*	*M3/1	*	*	*	*	*	*M3/1	*	*	*	*	*	*M3/1	*	*	*	*	*	*M3/1	*	*	*	*	*	*M3/1	*	*	*	*	*
=1	=1	=1	=1	=1	=1	=1	=1	=1	=1	=1	=1	=1	=1	=1	=1	=1	=1	=1	=1	=1	=1	=1	=1	=1	=1	=1	=1	=1	=1	=1	=1	=1	=1	=1	=1	=1	=1	=1	=1	=1	=1	=1	=1
!	!	!	!	!	!	!	!	!	!	!	!	!	!	!	!	!	!	!	!	!	!	!	!	!	!	!	!	!	!	!	!	!	!	!	!	!	!	!LO:TX:t=P:problem=kreski taktowe tylko na końcu frazy hymnu (t. 4, 9, 13, 18)	!	!	!	!	!
!	!	!	!	!	!	!	!	!	!	!	!	!	!	!	!	!	!	!	!	!	!	!	!	!	!	!	!	!	!	!	!	!	!	!	!	!	!	!LO:TX:t=P:problem=all\right&colon; global	!	!	!	!	!
1D\	[[1. De-	2. Hic	[[3. Pae-	4. Ob	5. Laus	.	1D\	1. De-	2. Hic	3. Pae-	4. Ob	5. Laus	.	1A\	1. De-	2 Hic	3 Pae-	4 Ob	5. Laus	1A\	1. De-	2 Hic	3 Pae-	4 Ob	5. Laus	1f\	1. De-	2. Hic	3. Pae-	4. Ob	5. Laus	1a\	1 De-	2 Hic	3 Pae-	4 Ob	5 Laus	1d/	1. De-	2 Hic	3 Pae-	4 Ob	5. Laus
1D\	-us	nem-	-nas	hoc	et	.	1D\	-us	nem-	-nas	hoc	et	.	1A\	-us	nem-	-nas	hoc	et	1A\	-us	nem-	-nas	hoc	et	1d\	-us	nem-	-nas	hoc	et	1a\	-us	nem-	-nas	hoc	et	1f/	-us	nem-	-nas	hoc	et
1C/	tu-	-pe	Cu-	pre-	pe-	.	1C/	tu-	-pe	cu-	pre-	pe-	.	1c\	tu-	-pe	cu-	pre-	pe-	1c\	tu-	-pe	cu-	pre-	pe-	1e\	tu-	-pe	cu-	pre-	pe-	1cc\	tu-	-pe	cu-	pre-	pe-	1g\	tu-	-pe	cu-	pre-	pe-
=2-	=2-	=2-	=2-	=2-	=2-	=2-	=2-	=2-	=2-	=2-	=2-	=2-	=2-	=2-	=2-	=2-	=2-	=2-	=2-	=2-	=2-	=2-	=2-	=2-	=2-	=2-	=2-	=2-	=2-	=2-	=2-	=2-	=2-	=2-	=2-	=2-	=2-	=2-	=2-	=2-	=2-	=2-	=2-
!	!	!	!	!	!	!	!LO:SIC:v:s=0FF	!	!	!	!	!	!	!	!	!	!	!	!	!	!	!	!	!	!	!	!	!	!	!	!	!	!	!	!	!	!	!	!	!	!	!	!
0F\	-o-	Mun-	-cur-	-ca-	-ren-	.	0GG/	-o-	mun-	-cur-	-ca-	-ren-	.	0c\	-o-	mun-	-cur-	-ca-	-ren-	0c\	-o-	mun-	-cur-	-ca-	-ren-	0f\	-o-	mu(n)-	-cur-	-ca-	-ren-	0cc\	-o-	mun-	-cur-	-ca-	-ren-	0a\	-o-	mun-	-cur-	-ca-	-ren-
1C/	-rum	-di	-rit	-tu	-nis	.	1C/	-rum	-di	-rit	-tu	-nis	.	1c\	-rum	-di	-rit	-tu	-nis	1c\	-rum.	-di	-rit	-tu	-nis	1e\	-rum	-di	-rit	-tu	-nis	1cc\	-rum	-di	-rit	-tu	-nis	1g\	-ru(m)	-di	-rit	-tu	-nis
=3-	=3-	=3-	=3-	=3-	=3-	=3-	=3-	=3-	=3-	=3-	=3-	=3-	=3-	=3-	=3-	=3-	=3-	=3-	=3-	=3-	=3-	=3-	=3-	=3-	=3-	=3-	=3-	=3-	=3-	=3-	=3-	=3-	=3-	=3-	=3-	=3-	=3-	=3-	=3-	=3-	=3-	=3-	=3-
0D\	mi-	gau-	for-	ſup-	glo-	.	0D\	Mi-	gau-	for-	ſup-	glo-	.	0A\	Mi-	gau-	for-	ſup-	glo-	0A\	mi-	gau-	for-	Sup-	glo-	0d\	mi-	gau-	for-	ſup-	glo-	0a\	mi-	gau-	for-	Sup-	glo-	0f/	mi-	gau-	for-	ſup-	glo-
1GG/	-li-	-di-	-ti-	-pli-	-ri-	.	1GG/	-li-	-di-	-ti-	-pli-	-ri-	.	1B-X\	-li-	-di-	-ti-	-pli-	-ri-	1B-X\	-li-	-di-	-ti-	-pli-	-ri-	1d\	-li-	-di-	-ti-	-pli-	-ri-	1b-X\	-li-	-di-	-ti-	-pli-	-ri-	1g\	-li-	-di-	-ti-	-pli-	-ri-
=4-	=4-	=4-	=4-	=4-	=4-	=4-	=4-	=4-	=4-	=4-	=4-	=4-	=4-	=4-	=4-	=4-	=4-	=4-	=4-	=4-	=4-	=4-	=4-	=4-	=4-	=4-	=4-	=4-	=4-	=4-	=4-	=4-	=4-	=4-	=4-	=4-	=4-	=4-	=4-	=4-	=4-	=4-	=4-
0.AA/	-tum	-a.	-ter.	-ci.	-a.	.	0.AA/	-tum.	-a.	-ter;	-ci.	-a.	.	0.A\	-tum	-a	-ter	-ci	-a	0.A\	-tum,	-a,	-ter,	-ci,	-a,	0.c\	-tum.	-a.	-ter.	-ci,	-a,	0.a\	-tum,	-a,	-ter,	-ci,	-a,	0.e/	-tum,	-a,	-ter,	-ci,	-a,
=5	=5	=5	=5	=5	=5	=5	=5	=5	=5	=5	=5	=5	=5	=5	=5	=5	=5	=5	=5	=5	=5	=5	=5	=5	=5	=5	=5	=5	=5	=5	=5	=5	=5	=5	=5	=5	=5	=5	=5	=5	=5	=5	=5
0D\	Sors	Et	Et	Te	Pa-	.	0D\	Sors	Et	Et	Te	Pa-	.	0d\	ſors	Et	Et	Te	Pa-	0d\	Sors	Et	Et	Te	Pa-	0a\	ſors	Et	Et	Te	Pa-	0dd\	Sors	Et	Et	Te	Pa-	0a\	Sorſ	Et	Et	Te	Pa-
!	!	!	!	!	!	!	!	!	!	!	!	!	!	!LO:SIC:v:l:s=blan:verse=2-	!	!	!	!	!	!	!	!	!	!	!	!	!	!	!	!	!	!	!	!	!	!	!	!	!	!	!	!	!
1D\	et	blan-	ſu-	po-	-tri	.	1D\	et	blan-	ſu-	po-	-tri	.	1d\	et	btan-	su-	po-	-tri	1d\	et	blan-	ſu-	po-	-tri	1a\	et	blan-	ſu-	po-	-tri	1dd\	et	blan-	ſu-	po-	-tri	1b\	et	blan-	ſu-	po-	-tri
=6-	=6-	=6-	=6-	=6-	=6-	=6-	=6-	=6-	=6-	=6-	=6-	=6-	=6-	=6-	=6-	=6-	=6-	=6-	=6-	=6-	=6-	=6-	=6-	=6-	=6-	=6-	=6-	=6-	=6-	=6-	=6-	=6-	=6-	=6-	=6-	=6-	=6-	=6--	=6-	=6-	=6-	=6-	=6-
1.F\	Co-	-da	-ſtu-	-ſci-	ſit	.	1.F\	Co-	-da	-ſtu-	-ſci-	ſit	.	1.c\	Co-	-da	-ſtu-	-sci-	ſit	1.c\	co-	-da	-ſtu-	-ſci-	ſit	0f\	co-	-da	-ſtu-	-ſci-	ſit	1.cc\	Co-	-da	-ſtu-	-ſci-	ſit	1.a\	Co-	-da	-ſtu-	-ſci-	ſit
*	*	*	*	*	*	*	*2\right	*	*	*	*	*	*	*2\right	*	*	*	*	*	*2\right	*	*	*	*	*	*	*	*	*	*	*	*2\right	*	*	*	*	*	*2\right	*	*	*	*	*
2F\	-ro-	frau-	-lit	-mus	at-	.	2F\	-ro-	frau-	-lit	-mus	at-	.	2c\	-ro-	frau-	-lit	-mus	at-	2c\	-ro-	frau-	-lit	-mus	at-	.	.	.	.	.	.	2cc\	-ro-	frau-	-lit	-mus	at-	2a\	-ro-	frau-	-lit	-mus	at-
1G\	-na	-dum	vi-	pi-	-(que)	.	1G\	-na	-dum	Vi-	pi-	-(que)	.	1B\	-na	-dum	Vi-	pi-	-(que)	1B\	-na	-dum	Vi-	pi-	-(que)	1e\	-ro-	frau-	-lit	-mus	at-	1b\	-na	-dum	vi-	pi-	-(que)	1g\	-na	-dum	vi-	pi-	-(que)
=7-	=7-	=7-	=7-	=7-	=7-	=7-	=7-	=7-	=7-	=7-	=7-	=7-	=7-	=7-	=7-	=7-	=7-	=7-	=7-	=7-	=7-	=7-	=7-	=7-	=7-	=7-	=7-	=7-	=7-	=7-	=7-	=7-	=7-	=7-	=7-	=7-	=7-	=7--	=7-	=7-	=7-	=7-	=7-
*2\right	*	*	*	*	*	*	*	*	*	*	*	*	*	*	*	*	*	*	*	*	*	*	*	*	*	*	*	*	*	*	*	*	*	*	*	*	*	*	*	*	*	*	*
(2A\	prae-	pa-	-ri-	-iſ-	Fi-	.	(2A\	prae-	pa-	-ri-	-iſ-	Fi-	.	[0A\	prae-	pa-	-ri-	-iſ-	fi-	[0A\	prae-	pa-	-ri-	-iſ-	fi-	1e\	-na	-dum	vi-	pi-	-(que)	0a\	prae-	pa-	-ri-	-iſ-	fi-	0cc\	prae-	pa-	-ri-	-iſ-	fi-
2G\	.	.	.	.	.	.	2G\	.	.	.	.	.	.	.	.	.	.	.	.	.	.	.	.	.	.	.	.	.	.	.	.	.	.	.	.	.	.	.	.	.	.	.	.
*	*	*	*	*	*	*	*	*	*	*	*	*	*	*	*	*	*	*	*	*	*	*	*	*	*	*2\right	*	*	*	*	*	*	*	*	*	*	*	*	*	*	*	*	*
2F\	.	.	.	.	.	.	2F\	.	.	.	.	.	.	.	.	.	.	.	.	.	.	.	.	.	.	2a\	prae-	pa-	-ri-	-iſ-	Fi-	.	.	.	.	.	.	.	.	.	.	.	.
2E\	.	.	.	.	.	.	2E\	.	.	.	.	.	.	.	.	.	.	.	.	.	.	.	.	.	.	2g\	.	.	.	.	.	.	.	.	.	.	.	.	.	.	.	.	.
1D\)	.	.	.	.	.	.	1D\)	.	.	.	.	.	.	0A\]	.	.	.	.	.	0A\]	.	.	.	.	.	1f\	.	.	.	.	.	(0a\	.	.	.	.	.	1dd\	.	.	.	.	.
=8-	=8-	=8-	=8-	=8-	=8-	=8-	=8-	=8-	=8-	=8-	=8-	=8-	=8-	=8-	=8-	=8-	=8-	=8-	=8-	=8-	=8-	=8-	=8-	=8-	=8-	=8-	=8-	=8-	=8-	=8-	=8-	=8-	=8-	=8-	=8-	=8-	=8-	=8--	=8-	=8-	=8-	=8-	=8-
0E\	.	.	.	.	.	.	0E\	.	.	.	.	.	.	.	.	.	.	.	.	.	.	.	.	.	.	0e\	.	.	.	.	.	.	.	.	.	.	.	0cc\	.	.	.	.	.
.	.	.	.	.	.	.	.	.	.	.	.	.	.	1F/	.	.	.	.	.	(>1F/	.	.	.	.	.	.	.	.	.	.	.	1f/)	.	.	.	.	.	.	.	.	.	.	.
1E\	-mi-	-bu-	-li-	-si-	-li-	.	1E\	-mi-	-bu-	-li-	-ſi-	-li-	.	1G/	-mi-	-bu-	-li-	-si-	-li-	1G/)	-mi-	-bu-	-li-	-si-	-li-	1e\	-mi-	-bu-	-li-	-si-	-li-	1g\	-mi-	-bu-	-li-	-si-	-li-	1b\	-mi-	-bu-	-li-	-si-	-li-
=9-	=9-	=9-	=9-	=9-	=9-	=9-	=9-	=9-	=9-	=9-	=9-	=9-	=9-	=9-	=9-	=9-	=9-	=9-	=9-	=9-	=9-	=9-	=9-	=9-	=9-	=9-	=9-	=9-	=9-	=9-	=9-	=9-	=9-	=9-	=9-	=9-	=9-	=9--	=9-	=9-	=9-	=9-	=9-
!	!	!	!	!	!	!	!	!	!	!	!	!	!	!	!	!	!	!	!	!LO:N:vis=0	!	!	!	!	!	!	!	!	!	!	!	!	!	!	!	!	!	!LO:N:vis=0	!	!	!	!	!
0.AA/	-um.	-la.	-ter.	-me.	-o.	.	0.AA/	-um.	-la.	-ter.	-me.	-o.	.	0.A\	-u(m)	-la	-ter	-me	-o,	0.A\	-u(m),	-la,	-ter,	-me,	-o,	0.d\	-um	-la.	-ter	-me.	-o.	0.a\	-um	-la,	-ter,	-me,	-o,	0.a\	-um	-la,	-ter,	-me,	-o,
=10;	=10	=10	=10	=10	=10	=10	=10;	=10	=10	=10	=10	=10	=10	=10;	=10	=10	=10	=10	=10	=10;	=10	=10	=10	=10	=10	=10;	=10	=10	=10	=10	=10	=10;	=10	=10	=10	=10	=10	=10;	=10	=10	=10	=10	=10
1F\	Lau-	Im-	Pro	In	San-	.	1FF/	Lau-	Im-	Pro	In	San-	.	1c\	Lau-	Im-	Pro	In	ſan-	1c\	Lau-	Im-	Pro	In	San-	1f\	Lau-	Im-	Pro	In	S(an)-	1cc\	Lau-	Im-	Pro	In	San-	1a\	Lau-	Im-	Pro	In	San-
1F\	-des	-bu-	te	hoc	-cto	.	1FF/	-des	-bu-	te	hoc	-cto	.	1c\	-des	-bu-	te	hoc	-cto	1c\	-des	-bu-	te	hoc	-cto	1f\	-des	-bu-	te	hoc	-cto	1cc\	-des	-bu-	te	hoc	-cto	1a\	-des	-bu-	te	hoc	-cto
1F\	Ca-	-ta	ef-	Trÿ-	Si-	.	1FF/	Ca-	-ta	ef-	trÿ-	ſi-	.	1c\	ca-	-ta	ef-	Tri-	ſi-	1c\	ca-	-ta	ef-	tri-	Si-	1f\	ca-	-ta	ef-	Tri-	si-	1cc\	ca-	-ta	ef-	tri-	ſi-	1cc\	ca-	-ta	ef-	tri-	ſi-
=11-	=11-	=11-	=11-	=11-	=11-	=11-	=11-	=11-	=11-	=11-	=11-	=11-	=11-	=11-	=11-	=11-	=11-	=11-	=11-	=11-	=11-	=11-	=11-	=11-	=11-	=11-	=11-	=11-	=11-	=11-	=11-	=11-	=11-	=11-	=11-	=11-	=11-	=11--	=11-	=11-	=11-	=11-	=11-
0C/	-nen-	fel-	-fun-	-um-	-mul	.	0C/	-nen-	fel-	-fun-	-um-	-mul	.	0c\	-nen-	fel-	-fun-	-um-	-mul	0c\	-nen-	fel-	-fun-	-um-	-mul	0e\	-ne(n)-	fel-	-fun-	-um-	-mul	0cc\	-nen-	fel-	-fun-	-um-	-mul	0g\	-nen-	fel-	-fun-	-um-	-mul
1D\	-tes	-le	-dens	-pho	Pa-	.	1D\	-tes	-le	-dens	-pho	Pa-	.	1A\	-tes	-le	-dens	-pho	pa-	1A\	-tes	-le	-dens	-pho	pa-	0d\	-tes	-le	-dens	-pho	pa-	1a\	-tes	-le	-dens	-pho	pa-	1f/	-tes	-le	-dens	-pho	Pa-
=12-	=12-	=12-	=12-	=12-	=12-	=12-	=12-	=12-	=12-	=12-	=12-	=12-	=12-	=12-	=12-	=12-	=12-	=12-	=12-	=12-	=12-	=12-	=12-	=12-	=12-	=12-	=12-	=12-	=12-	=12-	=12-	=12-	=12-	=12-	=12-	=12-	=12-	=12-	=12-	=12-	=12-	=12-	=12-
0AA/	Mar-	de-	San-	Mar-	-ra-	.	0AA/	Mar-	de-	ſan-	Mar-	-ra-	.	0A\	Mar-	de-	ſan-	Mar-	-ra-	0A\	Mar-	de-	San-	Mar-	-ra-	.	.	.	.	.	.	0a\	Mar-	de-	ſan-	Mar-	-ra-	0ee\	Mar-	de-	ſan-	Mar-	-ra-
!	!	!	!	!	!	!	!	!	!	!	!	!	!	!	!	!	!	!	!	!	!	!	!	!	!	!LO:N:vis=4:xstem	!	!	!	!	!	!	!	!	!	!	!	!	!	!	!	!	!
.	.	.	.	.	.	.	.	.	.	.	.	.	.	.	.	.	.	.	.	.	.	.	.	.	.	1c\	Mar-	de-	ſan-	Mar-	-ra-	.	.	.	.	.	.	.	.	.	.	.	.
!	!	!	!	!	!	!	!	!	!	!	!	!	!	!	!	!	!	!	!	!	!	!	!	!	!	!LO:N:vis=4:xstem	!	!	!	!	!	!	!	!	!	!	!	!	!	!	!	!	!
1AA/	-tÿ-	-pu-	-gui-	-tÿ-	-clÿ-	.	1AA/	-tÿ-	-pu-	-gui-	-tÿ-	-cly-	.	1A\	-ty-	-pu-	-gui-	-ty-	-cly-	1A\	-ty-	-pu-	-gui-	-ty-	-cly-	1c\	-ty-	-pu-	-gui-	-ty-	-cle-	1a\	-ty-	-pu-	-gui-	-ty-	-cly-	1ee\	-ty-	-pu-	-gui-	-ty-	-clý-
=13-	=13-	=13-	=13-	=13-	=13-	=13-	=13-	=13-	=13-	=13-	=13-	=13-	=13-	=13-	=13-	=13-	=13-	=13-	=13-	=13-	=13-	=13-	=13-	=13-	=13-	=13-	=13-	=13-	=13-	=13-	=13-	=13-	=13-	=13-	=13-	=13-	=13-	=13--	=13-	=13-	=13-	=13-	=13-
0.D\	-ris.	-tans,	-nem,	-ris,	-to.	.	0.D\	-ris,	-tans,	-nem,	-ris,	-to.	.	0.A\	-ris	-tans	-nem	-ris	-to,	0.A\	-ris,	-tans,	-nem,	-ris	-to	0.d\	-ris.	-tans,	-nem	-ris.	-to.	0.a\	-ris	-tans,	-nem,	-ris,	-to,	0.dd\	-ris,	-tans,	-nem,	-ris,	-to,
=14	=14	=14	=14	=14	=14	=14	=14	=14	=14	=14	=14	=14	=14	=14	=14	=14	=14	=14	=14	=14	=14	=14	=14	=14	=14	=14	=14	=14	=14	=14	=14	=14	=14	=14	=14	=14	=14	=14	=14	=14	=14	=14	=14
1C/	Ab-	Per-	AE-	Di-	In	.	1C/	Ab-	Per-	ae-	Di-	In	.	1c\	ab-	Per-	ae-	di-	In	1c\	ab-	Per-	ae-	di-	In	1e\	ab-	Per-	ae-	di-	In	1cc\	Ab-	Per-	ae-	di-	In	1g\	Ab-	Per-	ae-	Di-	In
1C/	-sol-	-ue-	-ter-	-mit-	Sem-	.	1C/	-ſol-	-ue-	-ter-	-mit-	ſem-	.	1c\	-sol-	-ve-	-ter-	-mit-	ſem-	1c\	-sol-	-ve-	-ter-	-mit-	Sem-	1e\	-ſol-	-ve-	-ter-	-mit-	ſem-	1cc\	-ſol-	-ve-	-ter-	-mit-	Sem-	1g\	-ſol-	-ve-	-ter-	-mit-	ſem-
1C/	-ve	-nit	-na	-te	-pi-	.	1C/	-ve	-nit	-na	-te	-pi-	.	1c\	-ve	-nit	-na	-te	-pi-	1c\	-ve	-nit	-na	-te	-pi-	1e\	-ve	-nit	-na	-te	-pi-	1cc\	-ve	-nit	-na	-te	-pi-	1g\	-ve	-nit	-na	-te	-pi-
=15-	=15-	=15-	=15-	=15-	=15-	=15-	=15-	=15-	=15-	=15-	=15-	=15-	=15-	=15-	=15-	=15-	=15-	=15-	=15-	=15-	=15-	=15-	=15-	=15-	=15-	=15-	=15-	=15-	=15-	=15-	=15-	=15-	=15-	=15-	=15-	=15-	=15-	=15--	=15-	=15-	=15-	=15-	=15-
0F\	ne-	ad	do-	no-	-ter-	.	0FF/	ne-	ad	do-	no-	-ter-	.	0c\	Ne-	ad	do-	No-	-ter-	0c\	ne-	ad	do-	no-	-ter-	0f\	ne-	ad	do-	no-	-ter-	0cc\	ne-	ad	do-	no-	-ter-	0a\	ne-	ad	do-	no-	-ter-
!	!	!	!	!	!	!	!	!	!	!	!	!	!	!LO:SIC:v:s=1G	!	!	!	!	!	!LO:SIC:v:s=1G	!	!	!	!	!	!	!	!	!	!	!	!	!	!	!	!	!	!	!	!	!	!	!
1C/	-xu	Cae-	-na	-xam	-na	.	1C/	-xu	Cae-	-na	-xam	-na	.	1A\	-xu	Cae-	-na	-xam	-na	1A\	-xu	Cae-	-na	-xam	-na	1e\	-xu	cae-	-na	-xam	-na	1g\	-xu	Cae-	-na	-xam	-na	1g\	-xu	Cae-	-na	-xam	-na
=16-	=16-	=16-	=16-	=16-	=16-	=16-	=16-	=16-	=16-	=16-	=16-	=16-	=16-	=16-	=16-	=16-	=16-	=16-	=16-	=16-	=16-	=16-	=16-	=16-	=16-	=16-	=16-	=16-	=16-	=16-	=16-	=16-	=16-	=16-	=16-	=16-	=16-	=16--	=16-	=16-	=16-	=16-	=16-
(1.D\	Cri-	-le-	poſ-	Ser-	Sae-	.	(1.D\	Cri-	-le-	poſ-	ſer-	Sae-	.	1.d\	Cri-	-le-	poſ-	ſer-	ſae-	(1.d\	Cri-	-le-	poſ-	Ser-	Sae-	(2a\	Cri-	-le-	poſ-	ſer-	ſae-	(1cc\	Cri-	-le-	poſ-	ſer-	ſae-	0.f/	Cri-	-le-	poſ-	ser-	ſae-
.	.	.	.	.	.	.	.	.	.	.	.	.	.	.	.	.	.	.	.	.	.	.	.	.	.	2g\)	.	.	.	.	.	.	.	.	.	.	.	.	.	.	.	.	.
.	.	.	.	.	.	.	.	.	.	.	.	.	.	.	.	.	.	.	.	.	.	.	.	.	.	2f\	.	.	.	.	.	1b-X\	.	.	.	.	.	.	.	.	.	.	.
2C/	.	.	.	.	.	.	2C/	.	.	.	.	.	.	(2c\	.	.	.	.	.	2c\	.	.	.	.	.	(2e\	.	.	.	.	.	.	.	.	.	.	.	.	.	.	.	.	.
2BB-X/	.	.	.	.	.	.	2BB-X/	.	.	.	.	.	.	1B-X\)	.	.	.	.	.	1B-X\)	.	.	.	.	.	1d\	.	.	.	.	.	1.a\)	.	.	.	.	.	.	.	.	.	.	.
2AA/	.	.	.	.	.	.	2AA/	.	.	.	.	.	.	.	.	.	.	.	.	.	.	.	.	.	.	.	.	.	.	.	.	.	.	.	.	.	.	.	.	.	.	.	.
=17-	=17-	=17-	=17-	=17-	=17-	=17-	=17-	=17-	=17-	=17-	=17-	=17-	=17-	=17-	=17-	=17-	=17-	=17-	=17-	=17-	=17-	=17-	=17-	=17-	=17-	=17-	=17-	=17-	=17-	=17-	=17-	=17-	=17-	=17-	=17-	=17-	=17-	=17--	=17-	=17-	=17-	=17-	=17-
1GG/	.	.	.	.	.	.	1GG/	.	.	.	.	.	.	1.A\	.	.	.	.	.	[1.A\	.	.	.	.	.	1d\	.	.	.	.	.	.	.	.	.	.	.	0.e/	-mi-	-ſti-	-si-	-vu-	-cu-
.	.	.	.	.	.	.	.	.	.	.	.	.	.	.	.	.	.	.	.	.	.	.	.	.	.	.	.	.	.	.	.	2a\	.	.	.	.	.	.	.	.	.	.	.
1.AA/)	.	.	.	.	.	.	1.AA/)	.	.	.	.	.	.	.	.	.	.	.	.	.	.	.	.	.	.	1.c\)	.	.	.	.	.	0f/	-mi-	-ſti-	-si-	-vu-	-cu-	.	.	.	.	.	.
.	.	.	.	.	.	.	.	.	.	.	.	.	.	(>2A/	-mi-	-ſti-	-si-	-vu-	-cu-	2A/]	.	.	.	.	.	.	.	.	.	.	.	.	.	.	.	.	.	.	.	.	.	.	.
.	.	.	.	.	.	.	.	.	.	.	.	.	.	1F/)	.	.	.	.	.	1F/	-mi-	-ſti-	-si-	-vu-	-cu-	.	.	.	.	.	.	.	.	.	.	.	.	.	.	.	.	.	.
2AA/	-mi-	-ſti-	-si-	-vu-	-cu-	.	2AA/	-mi-	-ſti-	-ſi-	-vu-	-cu-	.	.	.	.	.	.	.	.	.	.	.	.	.	2c/	-mi-	-ſti-	-si-	-vu-	-cu-	.	.	.	.	.	.	.	.	.	.	.	.
=18-	=18-	=18-	=18-	=18-	=18-	=18-	=18-	=18-	=18-	=18-	=18-	=18-	=18-	=18-	=18-	=18-	=18-	=18-	=18-	=18-	=18-	=18-	=18-	=18-	=18-	=18-	=18-	=18-	=18-	=18-	=18-	=18-	=18-	=18-	=18-	=18-	=18-	=18--	=18-	=18-	=18-	=18-	=18-
!	!	!	!	!	!	!	!	!	!	!	!	!	!	!	!	!	!	!	!	!	!	!	!	!	!	!	!	!	!	!	!	!	!	!	!	!	!	!LO:TX:t=P:global:problem=końcowa nuta będąca jednocześnie kreską taktową	!	!	!	!	!
0.D\	-nis.]]	-a.	-det.]]	-lis.	-la.	Amen.	0.D\	-nis.	-a.	-det.	-lis.	-la.	Amen.	0.F/	-nis	-a	-det	-lis	-la	0.F/	-nis	-a	-det	-lis	-la (Amen)	0.d\	-nis,	-a,	-det,	-lis	-la,	0.f/	-nis	-a	-det	-lis	-la, (Amen)	0.d/	-nis	-a	-det,	-lis,	-la. (Amen)
==	==	==	==	==	==	==	==	==	==	==	==	==	==	==	==	==	==	==	==	==	==	==	==	==	==	==	==	==	==	==	==	==	==	==	==	==	==	==	==	==	==	==	==
*-	*-	*-	*-	*-	*-	*-	*-	*-	*-	*-	*-	*-	*-	*-	*-	*-	*-	*-	*-	*-	*-	*-	*-	*-	*-	*-	*-	*-	*-	*-	*-	*-	*-	*-	*-	*-	*-	*-	*-	*-	*-	*-	*-
!!!system-decoration: [(s1,s2,s3,s4,s5,s6,s7)]
!!!EED: Leszek Kubiak
!!!EEV: 2021-02-04
!!!ENC: Krzysztof Stępień
!!!END: 2021-01-26
